public/svg/lists.svg

<svg width="170" height="303" viewBox="0 0 170 303" fill="none" xmlns="http://www.w3.org/2000/svg">
<path d="M96.5533 146.606C90.0503 133.586 81.5576 121.864 73.72 109.676C72.8707 108.33 71.8516 107.106 71.0509 105.736C66.6356 98.009 60.5167 91.4105 53.1676 86.4511C37.4682 75.8788 31.3777 59.335 29.1211 41.225C27.738 30.3346 29.1211 19.3707 28.8299 8.45571C28.6115 1.5788 35.0417 -2.43477 41.6418 1.62775C46.2169 4.4026 50.369 7.83186 53.9684 11.8085C64.0918 22.791 71.3903 36.1099 75.2244 50.5982C78.7213 63.2034 77.3604 76.6761 71.4148 88.3111C70.6201 89.4088 70.1918 90.7329 70.1918 92.0921C70.1918 93.4514 70.6201 94.7754 71.4148 95.8732C83.0863 113.322 95.1459 130.576 104.852 149.298C106.89 148.319 105.992 146.85 105.992 145.553C105.992 135.324 106.429 125.29 103.056 115.084C98.3489 100.89 99.3437 86.0351 102.765 71.4492C105.386 60.2161 108.006 48.983 111.403 37.9701C111.863 36.2406 112.489 34.5604 113.272 32.9532C113.667 32.0052 114.321 31.1905 115.159 30.6044C115.997 30.0183 116.983 29.6852 118.001 29.6441C119.02 29.603 120.029 29.8556 120.911 30.3724C121.792 30.8891 122.509 31.6485 122.978 32.5616C124.974 35.7652 126.541 39.2215 127.637 42.8402C133.048 60.7055 136.299 78.8645 133.436 97.5618C131.592 109.578 126.156 119.367 114.315 124.482C113.581 124.73 112.939 125.198 112.476 125.823C112.012 126.449 111.748 127.201 111.719 127.982C110.384 138.065 110.166 148.221 109.778 158.353C109.864 159.953 110.339 161.508 111.161 162.88C119.503 181.612 125.008 201.503 127.491 221.885C129.554 222.08 129.505 220.294 129.918 219.217C132.964 212.552 135.55 205.684 137.658 198.66C137.988 197.992 138.093 197.234 137.958 196.501C137.822 195.768 137.453 195.1 136.906 194.597C133.034 190.006 130.947 184.153 131.034 178.127C130.677 169.134 132.121 160.162 135.28 151.745C139.405 139.925 144.258 128.398 149.038 116.847C149.609 115.341 150.358 113.911 151.271 112.588C151.754 111.767 152.441 111.086 153.264 110.613C154.088 110.14 155.019 109.892 155.966 109.892C156.913 109.892 157.844 110.14 158.667 110.613C159.491 111.086 160.178 111.767 160.661 112.588C161.6 113.873 162.344 115.292 162.869 116.798C168.838 133.929 171.726 151.451 169.008 169.61C168.044 176.343 165.616 182.778 161.899 188.454C160.315 191.228 158.147 193.617 155.547 195.452C152.948 197.287 149.98 198.524 146.854 199.076C145.611 199.191 144.437 199.7 143.499 200.531C142.561 201.363 141.91 202.473 141.637 203.701C138.58 212.511 135.329 221.322 129.02 228.443C127.928 229.667 128.292 231.062 128.365 232.408C128.914 244.164 127.803 255.939 125.065 267.38C122.638 277.316 121.134 287.619 116.256 296.747C115.395 299.123 113.98 301.255 112.131 302.964C111.403 300.639 112.762 299.048 113.369 297.433C120.527 277.822 124.135 257.074 124.021 236.177C124.155 234.711 123.933 233.235 123.375 231.875C122.817 230.515 121.939 229.312 120.818 228.37C117.203 225.311 113.951 221.811 110.603 218.581C110.02 218.825 109.535 218.874 109.365 219.119C104.997 225.507 99.829 226.265 92.1856 223.035C86.1706 220.465 80.6573 216.835 75.9038 212.316C68.0905 204.974 60.3743 197.632 52.6338 190.29C51.7558 189.485 50.9443 188.609 50.2073 187.671C49.854 187.327 49.5822 186.906 49.412 186.441C49.2419 185.975 49.1777 185.478 49.2243 184.984C49.2709 184.49 49.4271 184.014 49.6813 183.589C49.9355 183.165 50.2811 182.803 50.6926 182.532C52.5467 180.736 54.933 179.601 57.4868 179.302C73.5416 177.12 89.799 181.45 102.692 191.342C109.195 196.237 113.878 202.698 112.204 211.777C112.042 212.452 112.107 213.161 112.388 213.795C112.669 214.428 113.15 214.949 113.757 215.277C116.882 217.402 119.742 219.9 122.274 222.717C122.874 220.756 122.874 218.657 122.274 216.696C119.085 197.441 113.083 178.769 104.464 161.289C103.479 159.135 101.894 157.315 99.9018 156.052C90.5356 150.13 80.7568 144.942 71.0994 139.557C69.6435 138.75 68.6729 138.211 66.9258 139.557C60.8839 144.452 53.9198 144.599 46.7617 142.739C42.5515 141.622 38.5227 139.899 34.7991 137.624C23.8752 130.831 13.5634 123.084 3.98263 114.473C-2.20492 108.917 -1.113 104.463 6.7731 101.526C11.0274 99.8945 15.5429 99.065 20.0945 99.0792C32.9791 99.2194 45.6398 102.494 57.0015 108.624C64.4751 112.564 69.3523 118.658 69.6678 127.419C69.6006 129.573 70.2095 131.693 71.4078 133.477C72.6061 135.262 74.3324 136.619 76.3406 137.355C82.7465 140.39 88.8613 144.085 95.0974 147.487C95.6069 148.123 96.2378 148.661 96.9415 147.976C97.6452 147.291 97.0628 147.022 96.5533 146.606ZM56.0551 84.1507C56.4919 84.7625 57.0257 85.3498 57.7052 84.6156C57.875 84.4443 57.4382 83.7101 57.2927 83.2207C51.1015 66.4708 46.78 49.0775 44.408 31.3624C47.1014 31.7785 47.2955 33.6629 47.7808 34.9844C49.6249 40.0095 51.3397 45.0836 52.925 50.2066C56.3949 61.3908 59.3552 72.7707 64.4993 83.343C65.1241 85.3869 66.3206 87.2054 67.945 88.5803C71.8516 80.8713 74.6178 73.0889 73.6957 64.7925C70.9295 40.1237 58.8699 20.7411 39.5307 5.76368C38.633 4.88449 37.5685 4.1972 36.401 3.74303C35.2335 3.28885 33.9871 3.07714 32.7366 3.1206C31.1593 18.8812 29.4851 34.5439 33.6829 49.9864C37.2984 63.6423 43.3889 76.2214 56.0551 84.1507ZM155.032 113.347C154.532 113.836 154.084 114.378 153.697 114.962C147.274 128.169 141.808 141.828 137.343 155.832C135.158 162.668 134.269 169.858 134.722 177.026C135.134 182.508 135.838 187.941 140.351 192.395C143.749 184.539 144.671 176.071 149.402 169.17C148.965 178.959 145.69 187.867 143.651 197.142C148.674 198.219 152.241 195.919 155.299 192.566C160.216 187.053 163.363 180.168 164.325 172.816C167.334 154.021 163.719 136.107 158.016 118.266C157.595 116.336 156.544 114.604 155.032 113.347ZM112.423 122.989C112.913 123.066 113.412 123.066 113.903 122.989C114.444 122.755 114.957 122.459 115.431 122.108C119.121 119.573 122.201 116.237 124.447 112.346C126.694 108.454 128.049 104.105 128.413 99.6176C130.608 80.1729 128.418 60.4795 122.007 42.0082C121.109 38.4613 119.243 35.2395 116.62 32.7084C109.802 59.7756 100.387 85.6435 107.303 113.469C108.564 109.578 109.025 105.516 110.166 101.649C111.306 97.7821 111.234 93.5238 116.329 90.9052L112.423 122.989ZM42.4183 121.35C43.0658 120.992 43.799 120.824 44.536 120.863C45.2731 120.902 45.9848 121.146 46.5918 121.57C52.0466 123.976 57.2355 126.953 62.0728 130.454C63.0192 131.188 64.0383 131.946 65.2758 131.286C66.5133 130.625 65.8096 129.156 65.7368 128.153C65.3486 121.08 61.3449 116.455 55.4 113.322C43.5147 106.981 30.2887 103.623 16.843 103.533C12.4153 103.122 7.96573 104.041 4.05543 106.176C4.54975 107.801 5.58741 109.202 6.99148 110.141C15.1044 117.22 23.6022 123.838 32.4454 129.964C37.1365 133.261 42.2244 135.941 47.5867 137.942C50.594 139.137 53.8179 139.676 57.0464 139.524C60.275 139.372 63.4352 138.533 66.3192 137.061C58.5302 131.163 49.6735 127.688 42.4183 121.35ZM110.36 212.144C109.972 208.011 108.548 204.046 106.222 200.621C103.896 197.196 100.744 194.424 97.0628 192.566C89.8604 188.422 81.9212 185.744 73.6957 184.686C67.0145 183.732 60.2426 183.609 53.5316 184.319C53.4487 184.806 53.4948 185.307 53.6652 185.771C53.8356 186.236 54.1243 186.646 54.5022 186.962C63.39 195.973 73.026 204.202 83.3046 211.557C87.6705 215.011 92.5962 217.677 97.8636 219.437C101.576 220.49 105.143 220.832 108.492 216.99C104.585 212.707 99.2952 209.819 95.3158 204.191C101.333 205.292 104.876 209.403 110.433 212.144H110.36Z" fill="#3A3C51"/>
</svg>

<svg xmlns="http://www.w3.org/2000/svg" width="170" height="303" fill="none" xmlns:v="https://vecta.io/nano"><path d="M96.553 146.606c-6.503-13.02-14.996-24.742-22.833-36.93-.85-1.346-1.868-2.57-2.67-3.94C66.636 98.01 60.517 91.41 53.168 86.45c-15.7-10.572-21.8-27.116-24.046-45.226-1.383-10.9 0-21.854-.29-32.77-.218-6.877 6.212-10.9 12.812-6.828a55.33 55.33 0 0 1 12.327 10.181C64.092 22.79 71.4 36.1 75.224 50.598c3.497 12.605 2.136 26.078-3.8 37.713a6.45 6.45 0 0 0 0 7.562c11.67 17.45 23.73 34.703 33.437 53.425 2.038-.98 1.14-2.448 1.14-3.745 0-10.23.437-20.263-2.936-30.47-4.707-14.194-3.712-29.05-.29-43.635 2.62-11.233 5.24-22.466 8.638-33.48a27.73 27.73 0 0 1 1.869-5.017c.395-.948 1.05-1.763 1.887-2.35s1.824-.92 2.842-.96a5.33 5.33 0 0 1 2.91.728c.88.517 1.598 1.276 2.067 2.19a43.02 43.02 0 0 1 4.659 10.279c5.41 17.865 8.662 36.024 5.8 54.722-1.844 12.016-7.28 21.805-19.12 26.92-.734.248-1.376.716-1.84 1.34s-.728 1.378-.757 2.16c-1.335 10.083-1.553 20.24-1.94 30.37a9.84 9.84 0 0 0 1.383 4.527c8.342 18.732 13.847 38.623 16.33 59.005 2.063.195 2.014-1.59 2.427-2.668 3.046-6.665 5.632-13.533 7.74-20.557a3.46 3.46 0 0 0 .3-2.159c-.136-.733-.505-1.4-1.052-1.904-3.872-4.59-5.96-10.444-5.872-16.47a67.47 67.47 0 0 1 4.246-26.382c4.125-11.82 8.978-23.347 13.758-34.898.57-1.506 1.32-2.936 2.233-4.26.483-.82 1.17-1.502 1.993-1.975s1.755-.72 2.702-.72a5.42 5.42 0 0 1 2.701.721 5.48 5.48 0 0 1 1.994 1.975 16.14 16.14 0 0 1 2.208 4.21c5.97 17.13 8.857 34.653 6.14 52.812-.964 6.733-3.392 13.168-7.11 18.844a21.78 21.78 0 0 1-6.352 6.998c-2.6 1.835-5.567 3.072-8.693 3.624-1.243.115-2.417.624-3.355 1.455s-1.59 1.942-1.862 3.17c-3.057 8.8-6.308 17.62-12.617 24.742-1.092 1.224-.728 2.62-.655 3.965a125.18 125.18 0 0 1-3.3 34.972c-2.427 9.936-3.93 20.24-8.81 29.367a15.79 15.79 0 0 1-4.125 6.217c-.728-2.325.63-3.916 1.238-5.53 7.158-19.61 10.766-40.36 10.652-61.256a9.14 9.14 0 0 0-.646-4.302 9.08 9.08 0 0 0-2.557-3.505c-3.615-3.06-6.867-6.56-10.215-9.79-.583.244-1.068.293-1.238.538-4.368 6.388-9.536 7.146-17.18 3.916-6.015-2.57-11.528-6.2-16.282-10.72L52.634 190.3a21.96 21.96 0 0 1-2.427-2.619 3.3 3.3 0 0 1-.795-1.23c-.17-.466-.234-.963-.188-1.457s.203-.97.457-1.395a3.29 3.29 0 0 1 1.011-1.057c1.854-1.796 4.24-2.93 6.794-3.23 16.055-2.182 32.312 2.148 45.205 12.04 6.503 4.895 11.186 11.356 9.512 20.435a3.16 3.16 0 0 0 .184 2.018c.28.633.762 1.154 1.37 1.482a46.95 46.95 0 0 1 8.517 7.44c.6-1.96.6-4.06 0-6.02a198.71 198.71 0 0 0-17.81-55.407 12.21 12.21 0 0 0-4.562-5.237c-9.366-5.922-19.145-11.1-28.802-16.495-1.456-.807-2.427-1.346-4.174 0-6.042 4.895-13.006 5.042-20.164 3.182-4.2-1.117-8.24-2.84-11.963-5.115-10.924-6.793-21.236-14.54-30.816-23.15-6.188-5.556-5.096-10 2.8-12.947a36.88 36.88 0 0 1 13.321-2.447c12.885.14 25.545 3.415 36.907 9.545 7.474 3.94 12.35 10.034 12.666 18.795a10.29 10.29 0 0 0 1.74 6.058 10.15 10.15 0 0 0 4.933 3.878c6.406 3.035 12.52 6.73 18.757 10.132.5.636 1.14 1.174 1.844.49s.12-.954-.388-1.37zM56.055 84.15c.437.612.97 1.2 1.65.465.17-.17-.267-.906-.412-1.395a242.35 242.35 0 0 1-12.885-51.858c2.693.416 2.887 2.3 3.373 3.622 1.844 5.025 3.56 10.1 5.144 15.222 3.47 11.184 6.43 22.564 11.574 33.136.625 2.044 1.82 3.862 3.446 5.237 3.907-7.71 6.673-15.49 5.75-23.788C70.93 40.124 58.87 20.74 39.53 5.764c-.898-.88-1.962-1.566-3.13-2.02a9.22 9.22 0 0 0-3.664-.622c-1.577 15.76-3.252 31.423.946 46.866C37.298 63.642 43.39 76.22 56.055 84.15zm98.977 29.196a9.94 9.94 0 0 0-1.335 1.615c-6.423 13.207-11.89 26.866-16.354 40.87-2.185 6.836-3.074 14.026-2.62 21.194.412 5.482 1.116 10.915 5.63 15.37 3.398-7.856 4.32-16.324 9.05-23.225-.437 9.79-3.712 18.697-5.75 27.972 5.023 1.077 8.6-1.223 11.648-4.576 4.917-5.513 8.064-12.398 9.026-19.75 3.01-18.795-.606-36.71-6.31-54.55a8.85 8.85 0 0 0-2.984-4.919zm-42.61 9.642a4.77 4.77 0 0 0 1.48 0c.54-.234 1.054-.53 1.528-.88 3.7-2.535 6.77-5.87 9.016-9.762a30.37 30.37 0 0 0 3.966-12.728c2.195-19.445.005-39.138-6.406-57.61a19.61 19.61 0 0 0-5.387-9.3c-6.818 27.067-16.233 52.935-9.317 80.76 1.26-3.89 1.722-7.953 2.863-11.82s1.068-8.125 6.163-10.744l-3.906 32.084zm-70.005-1.64c.648-.358 1.38-.526 2.118-.487s1.45.283 2.056.707c5.455 2.406 10.644 5.383 15.48 8.884.946.734 1.966 1.492 3.203.832s.534-2.13.46-3.133c-.388-7.073-4.392-11.698-10.337-14.83a83.08 83.08 0 0 0-38.557-9.789c-4.428-.41-8.877.508-12.788 2.643.494 1.625 1.532 3.026 2.936 3.965a289.21 289.21 0 0 0 25.454 19.823 67.17 67.17 0 0 0 15.141 7.978 22.72 22.72 0 0 0 9.46 1.582c3.23-.152 6.39-.99 9.273-2.463-7.79-5.898-16.646-9.373-23.9-15.71zm67.942 90.794c-.388-4.133-1.812-8.098-4.138-11.523s-5.478-6.197-9.16-8.055a62.96 62.96 0 0 0-23.367-7.88c-6.68-.954-13.453-1.077-20.164-.367-.083.487-.037.988.134 1.452s.46.875.837 1.19c8.888 9.01 18.524 17.24 28.802 24.595 4.366 3.454 9.292 6.12 14.56 7.88 3.712 1.053 7.28 1.395 10.628-2.447-3.907-4.283-9.197-7.17-13.176-12.8 6.017 1.1 9.56 5.212 15.117 7.953h-.073z" fill="#3a3c51"/></svg>
